X: 1
T: Crown Point  v.2
P: piffero secondo a0072
C: Dan Moylan
%R: polka, march
S: http://ancients.sudburymuster.org/mus/med/pdf/crownpthC0.pdf
Z: 2020 John Chambers <jc:trillian.mit.edu>
M: 2/4
L: 1/16
K: D
z2 |\
F2D2 D2F2 | EFGF G4   | F2D2 D2A2 | GFED C2G2 |\
F2A2 C2G2 | B2C2 A2c2 | EFGF GCDE | F2A2 F2 :|
|: z2 |\
E2ED C2C2 | G2GF E2C2 | D2A2 F2D2 | GFED C2G,2 |\
F2A2 C2G2 | B2C2 A2c2 | EFGF GCDE | F2A2 F2 :|


